X: 353
T: Alabama Jubilee
C:George L. Cobb and Jack Yellen
B: jims roots
M:2/2
L:1/8
Q: 1/2=100
K:C
V:1 
%S:http://secondhandsongs.com/work/115693
%Q:1/2=120
%%MIDI chordname dim 0 3 6 9
cB_B || "A7"AG EA- | AG2E | AG EA- | A4 | "D7"A^F DA- |
A^F2D | A^F DA- | A4 | "G7"zB- B^A | B=A- AG | A^G AB- |
BG AB | "C"c "^BREAK" BcA- | AGE z | "C"c "^BREAK" BcA- | AGEz | "A7"AG EA- |
AG2E | AG EA- | A4 | "Dm"D^C DE | "A7"FE FG | "Dm"A2 ^GA- |
"Ebdim"AB cd | "C"e4 | "E7"d3d | "Am"c2 "F"A2 | "C"G2 ^FG | "D7"Ac Ac |
"G7"B2 G2 | "C"c4- | "C"c |]
"Dm"!//!A2!//!D2!//!E2 | !//!F2!//!G2!//!A2 | "Gm"!//!B2!//!E2!//!F2 | !//!G2!//!A2!//!=B2 | "A7"!//!^c2!//!A2!//!=B2 | !//!^c2!//!d2!//!e2 | "Dm"!//![d4f]!uppermordent!e2 | d4A2 |
"Dm"f2e2!uppermordent!_e2 | d2^c2yd2 | "Gm6"e4f2 | "Gm"g4A2 | g2!uppermordent!_g2yf2 | "Gm6"e2f2yg2 | "Dm"a_a g_g fye | _eyd _dyc (3=B_B(A ||
"Dm"!//!A2)!//!D2!//!E2 | !//!F2!//!G2!//!A2 | "Gm"!//!B2!//!E2!//!F2 | !//!G2!//!A2!//!=B2 | "A7"!//!^c2!//!A2!//!=B2 | !//!^c2!//!d2!//!e2 | "Dm"!//!f4 !//!!uppermordent!e2 | !//!d3 ^cd_e |
"Gm6"e2G2A2 | B2!uppermordent!f2e2 | "Dm"d4[^c(f] | [f)4=c]=B2 | "Gm"!uppermordent!B2E2F2 | "A7"G2B2!uppermordent!A2 | "Dm"(D6 | D)A/c/ BA ^GA ||
"Gm6"e3d (^c2 | ^c)A/=c/ BA ^GA | "Dm"f3e (d2 | d)A/c/ BA ^GA | "A7"g3!uppermordent!f (e2 | e2)f2g2 | "Dm"[f3a][fa] ([f2a] | [fa])A ^GA df |
"Dm"!//!a6 | "Gm"g4 "Dm"(!uppermordent!f2 | f3) "A7"e^cA | GA ^GA ^ce | "Gm"!//!g6 | "A7"!//!f4!//!^c2 | "Fmaj13"e3 dAF | "Dm"DA/c/ BA ^GA ||
"Gm6"e3d (^c2 | ^c)A/c/ BA ^GA | "Dm"f3e (d2 | d)A/c/ BA ^GA | "A7"!//!g3!//!!uppermordent!f (!//!e2 | !//!e2)!//!f2!//!g2 | "Dm"!//!a3 ^fd_d | c2g2^f2 |
"Dm"a3 gdB | a3 ef^f | "Gm"g3 fdA | g4f2 | "A7"f3 e^cG | f2^c2e2 | "Dm"df Ad "A7"FA | "Dm"D^C DE FG ||
"Dm"!//!A2!//!D2!//!E2 | !//!F2!//!G2!//!A2 | "Gm"!//!B2!//!E2!//!F2 | !//!G2!//!A2!//!=B2 | "A7"!//!^c2!//!A2!//!=B2 | !//!^c2!//!d2!//!e2 | "Dm"!//![d4f] !//![^c2e] | !//![F4d] !//!A2 |
"Dm"f2e2_e2 | d2^c2yd2 | "Gm6"e4f2 | "Gm"g4A2 | g2!uppermordent!_g2yf2 | "Gm6"e2f2yg2 | "Dm"a6- | a6 ||
"Dm"z2!//!D2!//!E2 | !//!F2!//!G2!//!A2 | "Gm"!//!B2!//!E2!//!F2 | !//!G2!//!A2!//!=B2 | "A7"!//!^c2!//!A2!//!=B2 | !//!^c2!//!d2!//!e2 | "Dm"!//![d4f] !//!e2 | !//!d4!//!^d2 |
"Gm6"e2G2A2 | !//!B2!//!f2!//!!uppermordent!e2 | "Dm"!//!d4!//!_d2 | !//!c4!//!=B2 | "Gm6"!//!B2!//!E2!//!F2 | "A7"!//!G2!//!B2!//!A2 | "Dm"!//!D6- | !//!D6 ||
"D"!//!F6 | "G"!//!G4FG | "D"!//!A6- | !//!A6 | "G"!//!B6 | !//!G2!//!B2!//!_B2 | "D"!//!A6- | !//!A6 | {e}f3c "A"(e2 | e)B "G"d3A/c/ | "A"B3 !uppermordent!AGE | ^C6 |
"A"[^d3e]B "G"(=d2 | d)A "A"c3G/c/ | "G"!uppermordent!B3 AFD | "D"A,6 || !//!F6 | "G"!//!G4FG | "D" A6-| AD EF GA | "G"!//!B6 | !//!G2!//!B2!//!_B2 | "D"[F6(A] | A6) |
"D"z2z f=f^f | "D7"a2g2f2 | "Em"!uppermordent!f3 e^de | "G"g2 _Bd e=f | "D"f2FA df | "A"e2 GA ce | "D"d6- | d^CDE =FG ||
"Dm"A2D2E2 | F2G2A2 | "Gm"B2E2F2 | G2A2=B2 | "A7"^c2A2=B2 | ^c2d2e2 | "Dm"f4!uppermordent!e2 | d4 A2 |
"Dm"f2e2_e2 | d2^c2yd2 | "Gm6"e4f2 | "Gm"g4A2 | g2!uppermordent!_g2yf2 | "Gm6"e2f2yg2 | "Dm"a6- | a6 ||
"Dm"zA f^c ed | "Gm"^GA c=B _BA | "Gm6"Gb ^fg ag | "Gm"!uppermordent!^cd fe _ed | "A7"^c2A2=B2 | [G2^c]d2!uppermordent!e2 |
"Dm"!//![d4f]!//!!uppermordent!e2 | d3 ^cd^d | "Gm6"e2G2A2 | !uppermordent!B2{g}f2e2 | "Dm"d3f^cf | c3f=Bf | "Gm"B2E2F2 | "A7"G2B2!uppermordent!A2 | "Dm"D6- | D6 |]
% abcbook-tune_id 6298c245a01aec69464ea9cd


% abcbook-boost 0
% abcbook-tablature 
% abcbook-transpose 
% abcbook-lastupdated 1666680002886
% abcbook-soundfonts 
% abcbook-repeats 1


